projects/js-packages/social-logos/src/svg/twitch.svg

<svg enable-background="new 0 0 24 24" viewBox="0 0 24 24" xmlns="http://www.w3.org/2000/svg"><path d="m16.499 8.089h-1.636v4.91h1.636zm-4.499 0h-1.637v4.91h1.637zm-7.772-4.911-1.228 3.273v13.092h4.499v2.457h2.456l2.454-2.456h3.681l4.91-4.908v-11.458zm15.136 10.638-2.864 2.865h-4.5l-2.453 2.453v-2.454h-3.684v-11.866h13.501z"/></svg>

<?xml version="1.0" encoding="iso-8859-1"?>
<!-- Generator: Adobe Illustrator 19.2.1, SVG Export Plug-In . SVG Version: 6.00 Build 0)  -->
<svg version="1.1" xmlns="http://www.w3.org/2000/svg" xmlns:xlink="http://www.w3.org/1999/xlink" x="0px" y="0px"
	 viewBox="0 0 24 24" style="enable-background:new 0 0 24 24;" xml:space="preserve">
<g id="twitch">
	<path d="M16.499,8.089h-1.636v4.91h1.636V8.089z M12,8.089h-1.637v4.91H12V8.089z M4.228,3.178L3,6.451v13.092h4.499V22h2.456
		l2.454-2.456h3.681L21,14.636V3.178H4.228z M19.364,13.816l-2.864,2.865H12l-2.453,2.453V16.68H5.863V4.814h13.501V13.816z"/>
</g>
<g id="Layer_1">
</g>
</svg>
